assets/svg/icon-large-resource-rocket-dark-gray.svg

<?xml version="1.0" encoding="UTF-8" standalone="no"?>
<svg width="42px" height="64px" viewBox="0 0 42 64" version="1.1" xmlns="http://www.w3.org/2000/svg" xmlns:xlink="http://www.w3.org/1999/xlink">
    <!-- Generator: Sketch 3.8.3 (29802) - http://www.bohemiancoding.com/sketch -->
    <title>dark gray/icon-large-resource-rocket-dark-gray</title>
    <desc>Created with Sketch.</desc>
    <defs></defs>
    <g id="gray" stroke="none" stroke-width="1" fill="none" fill-rule="evenodd">
        <g id="icons,-large-detailed-(gray)" transform="translate(-638.000000, -919.000000)" fill="#242F36">
            <g id="dark-gray/icon-large-resource-rocket-dark-gray" transform="translate(638.000000, 919.000000)">
                <g id="rocket">
                    <path d="M20.3838915,0.223519581 C20.3535976,0.251966256 20.2991327,0.304262467 20.2221062,0.379960294 C20.0964302,0.503468452 19.9514237,0.649471864 19.7886965,0.81752409 C19.3268294,1.29450489 18.8134835,1.85424911 18.2615419,2.49320698 C16.6882571,4.31452794 15.1162154,6.40936695 13.6487931,8.74978264 C9.32327021,15.648629 6.77883436,23.2114278 6.92797909,31.1906708 C7.06608578,38.579379 7.57977673,43.3705691 8.48315609,46.4674348 C9.20456002,48.9404723 9.97448187,50.095355 11.6316065,51.720771 C12.1202286,52.2000434 12.2183622,52.2978936 12.4292477,52.522838 L13.632608,51.3946877 C13.3993592,51.145889 13.294474,51.0413067 12.7866475,50.5431974 C11.3160871,49.1007758 10.6999606,48.176586 10.0666438,46.0055193 C9.21278485,43.0784141 8.71278433,38.4149144 8.57717555,31.1598447 C8.43468548,23.5366257 10.8782106,16.2737627 15.0463004,9.62600885 C16.4667751,7.36047086 17.9889087,5.33213724 19.5097993,3.57147074 C20.0408191,2.956733 20.5330802,2.41997943 20.973681,1.9649608 C21.1268174,1.80681322 21.2622206,1.67047911 21.3782771,1.55642459 C21.44629,1.48958481 21.4917412,1.44594338 21.5130169,1.42596495 L20.3838915,0.223519581 L20.3838915,0.223519581 Z" id="Path-1"></path>
                    <path d="M20.5376105,1.4152201 C20.5579838,1.43508668 20.6016187,1.47859519 20.6669629,1.54528189 C20.7785294,1.65914038 20.9087123,1.79525984 21.0559597,1.95317516 C21.4796957,2.40761025 21.9531492,2.94371983 22.4639111,3.55776281 C23.9269788,5.31667708 25.3913251,7.3431498 26.757983,9.60684579 C30.7738155,16.2585644 33.1265523,23.5277608 32.9838965,31.1598447 C32.8482878,38.4149144 32.3482872,43.0784141 31.4944283,46.0055193 C30.8611115,48.176586 30.244985,49.1007758 28.7744246,50.5431974 C28.2665981,51.0413067 28.1617129,51.145889 27.9284641,51.3946877 L29.1318244,52.522838 C29.3427099,52.2978936 29.4408435,52.2000434 29.9294656,51.720771 C31.5865902,50.095355 32.3565121,48.9404723 33.077916,46.4674348 C33.9812954,43.3705691 34.4949863,38.579379 34.633093,31.1906708 C34.7821848,23.2142623 32.3348199,15.6526962 28.1700762,8.75432481 C26.7583345,6.41595314 25.2458241,4.32282737 23.732035,2.50293534 C23.2008971,1.86439611 22.7068721,1.30499266 22.2623582,0.828274293 C22.1057182,0.660285892 21.9661234,0.514325428 21.845123,0.390839067 C21.770927,0.315118848 21.7184343,0.262778123 21.6891933,0.234264439 L20.5376105,1.4152201 L20.5376105,1.4152201 Z" id="Path-1"></path>
                    <path d="M23.1135242,37.4671373 C23.0954648,37.4448113 23.1004398,37.4526976 23.1228303,37.4986082 C23.1814928,37.6188928 23.245544,37.7919471 23.3088568,38.0248652 C23.6414599,39.2484623 23.7510002,41.2601444 23.4797401,44.2335996 C23.1063297,48.3267894 22.0471944,53.7399032 20.1530689,60.64789 L21.7332541,60.6124285 C21.7249892,60.5868468 21.7086076,60.5357391 21.6846508,60.4603705 C21.6444888,60.3340194 21.5978337,60.1859335 21.5452273,60.0173783 C21.3946671,59.5349711 21.2267921,58.9858417 21.0459385,58.3801256 C20.5290552,56.6489769 20.0121338,54.8126749 19.5298943,52.9526085 C19.140989,51.4525451 18.7911964,49.9993417 18.4901922,48.6159386 C17.1703475,42.5499855 16.95869,38.3375867 17.9639078,37.619574 C19.6167073,36.4390029 21.1501352,36.4390029 22.5269314,37.1347245 C22.7273031,37.2359762 22.9044116,37.3438999 23.0550254,37.4502814 C23.1056238,37.48602 23.1485898,37.518346 23.1835401,37.5461973 C23.2009361,37.5600599 23.2096514,37.5673804 23.2093173,37.5670859 L23.1135242,37.4671373 L23.1135242,37.4671373 Z M24.3959704,36.4297699 L24.352283,36.3757614 L24.3001773,36.3298213 C24.0950312,36.14895 23.7469982,35.9031274 23.2708614,35.6625264 C21.3834149,34.7087634 19.2011621,34.7087634 17.0051644,36.2773332 C15.1401348,37.6094972 15.3601826,41.9888794 16.8784189,48.9666322 C17.184323,50.3725549 17.5391228,51.8465606 17.9331984,53.3665667 C18.4208559,55.2475313 18.9431097,57.1027757 19.4654017,58.8520394 C19.6482594,59.4644676 19.8181164,60.0200805 19.970649,60.5088072 C20.0241251,60.680149 20.0716452,60.8309806 20.1126687,60.9600419 C20.1374234,61.0379207 20.1545984,61.0915037 20.1636532,61.1195303 L21.013151,63.7489283 L21.7438383,61.0840687 C25.1972316,48.4893405 25.8670059,41.1475167 24.9005842,37.5921955 C24.7405917,37.0036071 24.5590652,36.631396 24.3959704,36.4297699 L24.3959704,36.4297699 Z" id="Path-3"></path>
                    <path d="M6.91650848,31.1907314 C6.85948255,31.2705677 6.75738392,31.4186958 6.61664757,31.6310569 C6.38495939,31.9806578 6.12756629,32.3862994 5.85090608,32.8439415 C5.06266316,34.1478267 4.27517801,35.6105803 3.5400808,37.2002281 C1.43215033,41.7586277 0.164948454,46.4314346 0.164948454,50.9690722 C0.164948454,55.6295578 0.41795547,57.8591822 1.01862994,58.5724831 C1.35894159,58.9766032 1.88469738,59.0839357 2.33395359,58.8348046 C2.56822207,58.7048931 2.72922223,58.5185084 2.87224605,58.2827153 C2.96829054,58.1243736 3.03634472,57.9751832 3.07998988,57.8606147 L3.09365706,57.8247384 L3.1039323,57.7877475 C3.10921284,57.7687376 3.12078201,57.7282447 3.13858825,57.667714 C3.16894466,57.5645201 3.2054403,57.4441566 3.24802165,57.3080709 C3.37042983,56.9168668 3.51657935,56.4799675 3.68600381,56.0089935 C4.16978458,54.6641571 4.74146892,53.3199521 5.3956832,52.0705949 C6.6756196,49.6262919 8.10688728,47.8655793 9.61675642,47.0826841 L8.85747038,45.6183468 C6.98025855,46.5917159 5.35712884,48.5884528 3.93441637,51.3054161 C3.24179304,52.6281234 2.64145503,54.039702 2.13389209,55.4506491 C1.95634625,55.9441993 1.80289389,56.4029297 1.67380153,56.8154958 C1.6283577,56.9607297 1.58912834,57.090109 1.55615153,57.2022107 C1.53595785,57.2708574 1.52210212,57.3193533 1.5146244,57.3462731 L1.53856682,57.2734059 C1.52735873,57.3028272 1.49689008,57.3696214 1.46192583,57.4272645 C1.44961598,57.4475588 1.43975664,57.461511 1.43603901,57.4658147 C1.45281924,57.4463888 1.48141512,57.4214418 1.53401147,57.392275 C1.78627699,57.2523834 2.12093982,57.3207044 2.28033913,57.5099911 C2.05627133,57.2439106 1.81443299,55.1127102 1.81443299,50.9690722 C1.81443299,46.702586 3.02145792,42.2516816 5.03723878,37.8925554 C5.74544054,36.3610691 6.50434715,34.9514001 7.26249598,33.6972956 C7.52707289,33.2596413 7.7722571,32.8732404 7.99159985,32.5422679 C8.06773441,32.4273863 8.1350016,32.3279062 8.192595,32.2443478 C8.22619524,32.1955994 8.24851549,32.1638021 8.25874925,32.1494748 L6.91650848,31.1907314 L6.91650848,31.1907314 Z" id="Path-4"></path>
                    <path d="M33.3082611,32.1494748 C33.3184948,32.1638021 33.3408151,32.1955994 33.3744153,32.2443478 C33.4320087,32.3279062 33.4992759,32.4273863 33.5754105,32.5422679 C33.7947532,32.8732404 34.0399374,33.2596413 34.3045143,33.6972956 C35.0626632,34.9514001 35.8215698,36.3610691 36.5297715,37.8925554 C38.5455524,42.2516816 39.7525773,46.702586 39.7525773,50.9690722 C39.7525773,55.1127102 39.510739,57.2439106 39.2866712,57.5099911 C39.4460705,57.3207044 39.7807333,57.2523834 40.0329988,57.392275 C40.0855952,57.4214418 40.1141911,57.4463888 40.1309713,57.4658147 C40.1272537,57.461511 40.1173943,57.4475588 40.1050845,57.4272645 C40.0701202,57.3696214 40.0396516,57.3028272 40.0284435,57.2734059 L40.0523859,57.3462731 C40.0449082,57.3193533 40.0310525,57.2708574 40.0108588,57.2022107 C39.977882,57.090109 39.9386526,56.9607297 39.8932088,56.8154958 C39.7641164,56.4029297 39.6106641,55.9441993 39.4331182,55.4506491 C38.9255553,54.039702 38.3252173,52.6281234 37.6325939,51.3054161 C36.2098815,48.5884528 34.5867518,46.5917159 32.7095399,45.6183468 L31.9502539,47.0826841 C33.460123,47.8655793 34.8913907,49.6262919 36.1713271,52.0705949 C36.8255414,53.3199521 37.3972257,54.6641571 37.8810065,56.0089935 C38.050431,56.4799675 38.1965805,56.9168668 38.3189887,57.3080709 C38.36157,57.4441566 38.3980657,57.5645201 38.4284221,57.667714 C38.4462283,57.7282447 38.4577975,57.7687376 38.463078,57.7877475 L38.4733532,57.8247384 L38.4870204,57.8606147 C38.5306656,57.9751832 38.5987198,58.1243736 38.6947643,58.2827153 C38.8377881,58.5185084 38.9987882,58.7048931 39.2330567,58.8348046 C39.6823129,59.0839357 40.2080687,58.9766032 40.5483804,58.5724831 C41.1490548,57.8591822 41.4020619,55.6295578 41.4020619,50.9690722 C41.4020619,46.4314346 40.13486,41.7586277 38.0269295,37.2002281 C37.2918323,35.6105803 36.5043471,34.1478267 35.7161042,32.8439415 C35.439444,32.3862994 35.1820509,31.9806578 34.9503627,31.6310569 C34.8096264,31.4186958 34.7075278,31.2705677 34.6505018,31.1907314 L33.3082611,32.1494748 L33.3082611,32.1494748 Z" id="Path-4"></path>
                    <path d="M20.7835052,25.8969072 C24.3363473,25.8969072 27.2164948,23.0167596 27.2164948,19.4639175 C27.2164948,15.9110754 24.3363473,13.0309278 20.7835052,13.0309278 C17.2306631,13.0309278 14.3505155,15.9110754 14.3505155,19.4639175 C14.3505155,23.0167596 17.2306631,25.8969072 20.7835052,25.8969072 L20.7835052,25.8969072 Z M20.7835052,24.2474227 C18.1416482,24.2474227 16,22.1057745 16,19.4639175 C16,16.8220606 18.1416482,14.6804124 20.7835052,14.6804124 C23.4253621,14.6804124 25.5670103,16.8220606 25.5670103,19.4639175 C25.5670103,22.1057745 23.4253621,24.2474227 20.7835052,24.2474227 L20.7835052,24.2474227 Z" id="Oval-1"></path>
                </g>
                <g id="accents" transform="translate(1.649485, 15.505155)">
                    <path d="M15.5065095,41.5968778 C15.5125726,41.6635727 15.5294004,41.7862749 15.5621423,41.9643092 C15.6154887,42.2543801 15.6950459,42.5984651 15.8059559,42.9958924 C16.1203833,44.1225908 16.6219169,45.4547895 17.3516336,46.9871946 L17.9473354,46.7035271 C17.2337532,45.2050043 16.7455961,43.908337 16.4414668,42.8185405 C16.3358819,42.4401947 16.2608,42.1154653 16.2110536,41.8449692 C16.1819398,41.6866633 16.1678397,41.58385 16.1635936,41.5371428 L15.5065095,41.5968778 L15.5065095,41.5968778 Z" id="Path-6"></path>
                    <path d="M22.599293,41.5371428 C22.5950469,41.58385 22.5809468,41.6866633 22.551833,41.8449692 C22.5020866,42.1154653 22.4270047,42.4401947 22.3214198,42.8185405 C22.0172905,43.908337 21.5291334,45.2050043 20.8155512,46.7035271 L21.411253,46.9871946 C22.1409697,45.4547895 22.6425033,44.1225908 22.9569307,42.9958924 C23.0678407,42.5984651 23.1473979,42.2543801 23.2007443,41.9643092 C23.2334862,41.7862749 23.250314,41.6635727 23.2563771,41.5968778 L22.599293,41.5371428 L22.599293,41.5371428 Z" id="Path-6"></path>
                    <path d="M18.7712977,0.0016372156 C18.6475301,0.0140139763 18.4458305,0.052192836 18.1914572,0.130624606 C17.7721093,0.259923543 17.3530845,0.458960319 16.9610004,0.743221297 C15.8441769,1.55291834 15.1752577,2.87403366 15.1752577,4.78350515 L15.8350515,4.78350515 C15.8350515,3.08472923 16.4032458,1.96254558 17.348278,1.27739726 C17.6778433,1.03846236 18.0320144,0.870231097 18.3858624,0.761127971 C18.5090036,0.723159437 18.6227174,0.695387017 18.7237264,0.676267458 C18.781634,0.665306377 18.8204711,0.659804455 18.8369497,0.658156599 L18.7712977,0.0016372156 L18.7712977,0.0016372156 Z" id="Path-8"></path>
                    <path d="M0.782382547,41.849858 C0.775445616,41.8017152 0.764309392,41.7017517 0.752932532,41.5532932 C0.656761647,40.2983434 0.75269245,38.6578851 1.19050892,36.7576831 C1.83875424,33.9441821 3.12829246,31.1197745 5.2101639,28.407033 L4.68674332,28.0053381 C2.54556629,30.7953565 1.216447,33.7064565 0.547560396,36.6095444 C0.0938473953,38.5787402 -0.00595641024,40.2854285 0.0950675969,41.6037075 C0.107584124,41.7670378 0.120341287,41.8815515 0.12933328,41.9439565 L0.782382547,41.849858 L0.782382547,41.849858 Z" id="Path-9"></path>
                    <path d="M38.2009537,41.9439565 C38.2099457,41.8815515 38.2227028,41.7670378 38.2352193,41.6037076 C38.3362433,40.2854285 38.2364395,38.5787403 37.7827265,36.6095444 C37.1138399,33.7064565 35.7847206,30.7953566 33.6435435,28.0053381 L33.1201229,28.407033 C35.2019944,31.1197745 36.4915327,33.9441821 37.139778,36.7576831 C37.5775945,38.6578852 37.6735253,40.2983434 37.5773544,41.5532932 C37.5659776,41.7017518 37.5548413,41.8017153 37.5479044,41.849858 L38.2009537,41.9439565 L38.2009537,41.9439565 Z" id="Path-9"></path>
                </g>
            </g>
        </g>
    </g>
</svg>

<svg width="42" height="64" viewBox="0 0 42 64" xmlns="http://www.w3.org/2000/svg"><title>dark gray/icon-large-resource-rocket-dark-gray</title><g fill="#242F36" fill-rule="evenodd"><path d="M20.384.224a25.048 25.048 0 0 0-.595.594 40.149 40.149 0 0 0-1.527 1.675 51.23 51.23 0 0 0-4.613 6.257c-4.326 6.899-6.87 14.461-6.721 22.44.138 7.39.652 12.18 1.555 15.277.722 2.473 1.491 3.628 3.149 5.254.488.479.586.577.797.802l1.204-1.128a23.834 23.834 0 0 0-.846-.852c-1.47-1.442-2.087-2.366-2.72-4.537-.854-2.928-1.354-7.591-1.49-14.846-.142-7.623 2.301-14.886 6.47-21.534a49.59 49.59 0 0 1 4.463-6.055 38.508 38.508 0 0 1 1.464-1.606 23.411 23.411 0 0 1 .539-.539L20.383.224z"/><path d="M20.538 1.415l.129.13c.112.114.242.25.389.408.424.455.897.99 1.408 1.605a49.474 49.474 0 0 1 4.294 6.049c4.016 6.652 6.369 13.92 6.226 21.553-.136 7.255-.636 11.918-1.49 14.846-.633 2.17-1.249 3.095-2.72 4.537-.507.498-.612.603-.846.852l1.204 1.128c.21-.225.309-.323.797-.802 1.658-1.626 2.428-2.78 3.149-5.254.903-3.096 1.417-7.888 1.555-15.276.15-7.977-2.298-15.538-6.463-22.437a51.115 51.115 0 0 0-4.438-6.251 39.613 39.613 0 0 0-1.47-1.675 24.607 24.607 0 0 0-.573-.594l-1.151 1.181zM23.114 37.467c-.019-.022-.014-.014.009.032.058.12.123.293.186.526.332 1.223.442 3.235.17 6.209-.373 4.093-1.432 9.506-3.326 16.414l1.58-.036a37.787 37.787 0 0 1-.188-.595 155.533 155.533 0 0 1-2.015-7.065 113.7 113.7 0 0 1-1.04-4.336c-1.32-6.066-1.531-10.278-.526-10.996 1.653-1.181 3.186-1.181 4.563-.485a4.211 4.211 0 0 1 .657.411l.025.021-.095-.1zm1.282-1.037l-.044-.054-.052-.046a5.044 5.044 0 0 0-1.03-.667c-1.887-.954-4.069-.954-6.265.614-1.865 1.332-1.645 5.712-.127 12.69.306 1.406.661 2.88 1.055 4.4a157.163 157.163 0 0 0 2.23 7.753l.85 2.629.73-2.665c3.454-12.595 4.124-19.936 3.158-23.492-.16-.588-.342-.96-.505-1.162zM6.917 31.19c-.058.08-.16.229-.3.441-.232.35-.49.755-.766 1.213A44.798 44.798 0 0 0 3.54 37.2C1.431 41.76.164 46.431.164 50.97c0 4.66.253 6.89.854 7.602.34.405.866.512 1.315.263.234-.13.395-.316.538-.552.096-.159.164-.308.208-.422l.014-.036.01-.037.035-.12a32.779 32.779 0 0 1 .547-1.659 31.651 31.651 0 0 1 1.71-3.938c1.28-2.445 2.71-4.205 4.22-4.988l-.759-1.465c-1.877.974-3.5 2.97-4.923 5.687a33.267 33.267 0 0 0-1.8 4.146 34.42 34.42 0 0 0-.578 1.751l-.041.144.024-.073a1.108 1.108 0 0 1-.103.193.351.351 0 0 1 .098-.074c.252-.14.587-.071.746.118-.224-.266-.466-2.397-.466-6.54 0-4.267 1.207-8.718 3.223-13.077a43.158 43.158 0 0 1 2.225-4.196 33.138 33.138 0 0 1 .93-1.453l.067-.095-1.342-.958z"/><path d="M33.308 32.15l.066.094a33.138 33.138 0 0 1 .93 1.453 43.158 43.158 0 0 1 2.226 4.196c2.016 4.359 3.223 8.81 3.223 13.076 0 4.144-.242 6.275-.466 6.541.16-.19.494-.258.746-.118.053.03.081.054.098.074a1.108 1.108 0 0 1-.103-.192l.024.072a23.745 23.745 0 0 0-.16-.53 34.42 34.42 0 0 0-.459-1.365 33.267 33.267 0 0 0-1.8-4.146c-1.423-2.717-3.046-4.713-4.923-5.687l-.76 1.465c1.51.783 2.941 2.543 4.221 4.988a31.651 31.651 0 0 1 1.71 3.938 32.779 32.779 0 0 1 .582 1.779l.01.037.014.036c.044.114.112.263.208.422.143.236.304.422.538.552.45.249.975.142 1.315-.263.601-.713.854-2.942.854-7.603 0-4.538-1.267-9.21-3.375-13.769a44.798 44.798 0 0 0-2.31-4.356 34.778 34.778 0 0 0-.767-1.213c-.14-.212-.242-.36-.3-.44l-1.342.958zM20.784 25.897a6.433 6.433 0 1 0 0-12.866 6.433 6.433 0 0 0 0 12.866zm0-1.65a4.784 4.784 0 1 1 0-9.567 4.784 4.784 0 0 1 0 9.567z"/><g><path d="M17.156 57.102c.006.067.023.19.056.367.053.29.133.635.243 1.032.315 1.127.816 2.459 1.546 3.991l.596-.283c-.714-1.499-1.202-2.796-1.506-3.885-.106-.379-.18-.703-.23-.974a3.95 3.95 0 0 1-.048-.308l-.657.06zM24.249 57.042a3.95 3.95 0 0 1-.048.308c-.05.27-.125.595-.23.974-.304 1.09-.792 2.386-1.506 3.885l.596.283c.73-1.532 1.231-2.864 1.545-3.991.111-.397.19-.741.244-1.032.033-.178.05-.3.056-.367l-.657-.06zM20.42 15.507a3.16 3.16 0 0 0-.58.129 4.2 4.2 0 0 0-1.23.612c-1.116.81-1.785 2.131-1.785 4.04h.66c0-1.698.568-2.82 1.513-3.505a3.546 3.546 0 0 1 1.375-.602l.113-.018-.065-.656zM2.432 57.355a5.046 5.046 0 0 1-.03-.297c-.096-1.255 0-2.895.438-4.795.648-2.814 1.938-5.638 4.02-8.35l-.524-.403c-2.14 2.79-3.47 5.702-4.139 8.605-.454 1.969-.553 3.676-.452 4.994.012.163.025.278.034.34l.653-.094zM39.85 57.45c.01-.063.022-.178.035-.341.1-1.318 0-3.025-.453-4.994-.669-2.903-1.998-5.814-4.139-8.605l-.523.402c2.081 2.713 3.371 5.537 4.02 8.35.437 1.901.533 3.541.437 4.796a5.046 5.046 0 0 1-.03.297l.653.094z"/></g></g></svg>
